dhis-2/dhis-support/dhis-support-system/src/main/resources/SVGs/clinical_a_outline.svg

<?xml version="1.0" encoding="UTF-8" standalone="no"?>
<!-- Created with Inkscape (http://www.inkscape.org/) -->
<svg id="svg8" xmlns:rdf="http://www.w3.org/1999/02/22-rdf-syntax-ns#" xmlns="http://www.w3.org/2000/svg" xmlns:osb="http://www.openswatchbook.org/uri/2009/osb" height="48" width="48" version="1.1" xmlns:cc="http://creativecommons.org/ns#" viewBox="0 0 12.7 12.7" xmlns:dc="http://purl.org/dc/elements/1.1/">
 <title id="title4753">UIO-icon</title>
 <metadata id="metadata5">
  <rdf:RDF>
   <cc:Work rdf:about="">
    <dc:format>image/svg+xml</dc:format>
    <dc:type rdf:resource="http://purl.org/dc/dcmitype/StillImage"/>
    <dc:title>UIO-icon</dc:title>
    <dc:creator>
     <cc:Agent>
      <dc:title>Joaquín Urbano</dc:title>
     </cc:Agent>
    </dc:creator>
    <dc:rights>
     <cc:Agent>
      <dc:title>GPL</dc:title>
     </cc:Agent>
    </dc:rights>
   </cc:Work>
  </rdf:RDF>
 </metadata>
 <g id="layer1" transform="translate(0,-284.3)">
  <path id="path1009" d="m20.523 5.8691c-0.366 0-0.662 0.2956-0.662 0.6621v3.4629c0 0.3669 0.296 0.6619 0.662 0.6619h0.26v1.252h-0.017c-0.25 0-0.45 0.202-0.45 0.451v24.801 0.842 0.447 0.004c0.002 1.314 0.703 2.528 1.84 3.186 1.14 0.658 2.544 0.658 3.684 0 1.138-0.658 1.84-1.871 1.842-3.186h0.002v-0.451-0.842-24.801c0-0.249-0.2-0.451-0.45-0.451h-0.017v-1.252h0.26c0.366 0 0.662-0.295 0.662-0.6619v-3.4629c0-0.3666-0.296-0.6621-0.662-0.6621h-6.954zm-0.013 0.5137h6.972c0.078 0 0.141 0.0627 0.141 0.1406v3.4786c0 0.078-0.063 0.141-0.141 0.141h-6.972c-0.078 0-0.141-0.063-0.141-0.141v-3.4786c0-0.0779 0.063-0.1406 0.141-0.1406zm0.787 4.2732h0.387 4.632 0.387v1.252h-0.387-3.156c-0.41 0.003-0.389 0.508-0.055 0.514h3.196v-0.002h0.867v26.158c-0.312 2.46-2.218 3.004-3.301 3.037-1.05-0.008-2.895-0.933-3.039-3.039v-26.269c0.469-0.005 0.469-0.009 0.469-0.399v-1.252zm1.129 9.088l-0.373 0.002v6.24 5.416 0.446 0.236 0.004 5.557 0.445 0.234 0.002c0 0.695 0.371 1.336 0.972 1.684 0.603 0.347 1.345 0.347 1.948 0 0.601-0.348 0.971-0.989 0.972-1.684h0.002v-0.238-0.445-5.557-6.102-6.24h-0.373-0.103-2.942-0.103zm0.14 0.322h2.868v18.266c0.005 1.744-2.619 2.056-2.868 0v-18.266z" transform="matrix(.26458 0 0 .26458 0 284.3)" fill="#333"/>
 </g>
</svg>

<svg width="48" height="48" viewBox="0 0 48 48" fill="none" xmlns="http://www.w3.org/2000/svg">
<path d="M20.5228 5.86914C20.1568 5.86914 19.8608 6.16474 19.8608 6.53123V9.99409C19.8608 10.361 20.1568 10.656 20.5228 10.656H20.7828V11.908H20.7658C20.5158 11.908 20.3158 12.11 20.3158 12.359V37.1596V38.0016V38.4486V38.4526C20.3178 39.7666 21.0188 40.9806 22.1558 41.6386C23.2958 42.2966 24.6998 42.2966 25.8398 41.6386C26.9778 40.9806 27.6797 39.7676 27.6817 38.4526H27.6837V38.0016V37.1596V12.359C27.6837 12.11 27.4837 11.908 27.2337 11.908H27.2167V10.656H27.4767C27.8427 10.656 28.1387 10.361 28.1387 9.99409V6.53123C28.1387 6.16464 27.8427 5.86914 27.4767 5.86914H20.5228ZM20.5098 6.38283H27.4817C27.5597 6.38283 27.6227 6.44553 27.6227 6.52343V10.002C27.6227 10.08 27.5597 10.143 27.4817 10.143H20.5098C20.4318 10.143 20.3688 10.08 20.3688 10.002V6.52343C20.3688 6.44553 20.4318 6.38283 20.5098 6.38283ZM21.2968 10.656H21.6838H26.3158H26.7028V11.908H26.3158H23.1598C22.7498 11.911 22.7708 12.416 23.1048 12.422H26.3008V12.42H27.1677V38.5776C26.8558 41.0376 24.9498 41.5816 23.8668 41.6146C22.8168 41.6066 20.9718 40.6816 20.8278 38.5756V12.307C21.2968 12.302 21.2968 12.298 21.2968 11.908V10.656ZM22.4258 19.7439L22.0528 19.7459V25.9858V31.4017V31.8477V32.0837V32.0877V37.6446V38.0896V38.3236V38.3256C22.0528 39.0206 22.4238 39.6616 23.0248 40.0096C23.6278 40.3566 24.3698 40.3566 24.9728 40.0096C25.5738 39.6616 25.9438 39.0206 25.9448 38.3256H25.9468V38.0876V37.6426V32.0857V25.9838V19.7439H25.5738H25.4708H22.5288H22.4258ZM22.5658 20.0659H25.4338V38.3316C25.4388 40.0756 22.8148 40.3876 22.5658 38.3316V20.0659Z" fill="#333333"/>
</svg>
